; generated by PrusaSlicer 2.2.0+win64 on 2020-04-07 at 09:02:50 UTC

; 

; external perimeters extrusion width = 0.70mm
; perimeters extrusion width = 0.70mm
; infill extrusion width = 0.70mm
; solid infill extrusion width = 0.70mm
; top infill extrusion width = 0.70mm
; first layer extrusion width = 0.70mm

M73 P0 R115
M73 Q0 S116
M201 X1000 Y1000 Z1000 E5000 ; sets maximum accelerations, mm/sec^2
M203 X200 Y200 Z12 E120 ; sets maximum feedrates, mm/sec
M204 P1250 R1250 T1250 ; sets acceleration (P, T) and retract acceleration (R), mm/sec^2
M205 X8.00 Y8.00 Z0.40 E4.50 ; sets the jerk limits, mm/sec
M205 S0 T0 ; sets the minimum extruding and travel feed rate, mm/sec
M107
M862.3 P "MK3S" ; printer model check
M862.1 P0.6 ; nozzle diameter check
M115 U3.8.1 ; tell printer latest fw version
G90 ; use absolute coordinates
M83 ; extruder relative mode
M104 S250 ; set extruder temp
M140 S90 ; set bed temp
M190 S90 ; wait for bed temp
M109 S250 ; wait for extruder temp
G28 W ; home all without mesh bed level
G80 ; mesh bed leveling
G1 Y-3.0 F1000.0 ; go outside print area
G92 E0.0
G1 X60.0 E9.0 F1000.0 ; intro line
M73 Q0 S116
M73 P0 R115
G1 X100.0 E12.5 F1000.0 ; intro line
G92 E0.0
M221 S95
G21 ; set units to millimeters
G90 ; use absolute coordinates
M83 ; use relative distances for extrusion
M900 K24 ; Filament gcode
;BEFORE_LAYER_CHANGE
G92 E0.0
;0.4


G1 E-1.40000 F2100.00000
G1 Z0.200 F10800.000
G1 Z0.400
;AFTER_LAYER_CHANGE
;0.4
G1 Z0.600
G1 X71.962 Y93.157
G1 Z0.400
G1 E1.40000 F2100.00000
M204 S1000
G1 F2686.600
G1 X71.762 Y92.476 E0.07246
G1 X73.114 Y85.647 E0.71102
G1 X74.803 Y79.006 E0.69987
G1 X76.835 Y72.463 E0.69984
G1 X76.943 Y72.171 E0.03176
G1 X79.204 Y66.033 E0.66808
G1 X81.904 Y59.735 E0.69984
G1 X84.926 Y53.586 E0.69984
G1 X88.264 Y47.601 E0.69984
G1 X91.907 Y41.798 E0.69984
G1 X95.847 Y36.192 E0.69984
G1 X100.073 Y30.798 E0.69984
G1 X104.575 Y25.628 E0.70021
G1 X107.936 Y22.243 E0.48722
G1 X111.556 Y19.131 E0.48757
G1 X111.738 Y18.997 E0.02305
G1 X115.410 Y16.313 E0.46458
G1 X119.474 Y13.808 E0.48760
G1 X123.722 Y11.631 E0.48753
G1 X123.930 Y11.544 E0.02305
G1 X128.130 Y9.795 E0.46462
G1 X132.668 Y8.313 E0.48760
G1 X137.307 Y7.192 E0.48744
G1 X141.940 Y6.452 E0.47920
G1 X146.902 Y6.060 E0.50834
G1 X151.607 Y6.064 E0.48061
G1 X156.293 Y6.434 E0.48003
G1 X161.072 Y7.192 E0.49420
G1 X165.711 Y8.313 E0.48747
G1 X170.249 Y9.795 E0.48760
G1 X174.449 Y11.544 E0.46462
G1 X174.657 Y11.631 E0.02305
G1 X178.905 Y13.808 E0.48756
G1 X182.969 Y16.313 E0.48757
G1 X186.823 Y19.131 E0.48760
G1 X190.443 Y22.243 E0.48760
G1 X193.804 Y25.628 E0.48723
G1 X198.306 Y30.798 E0.70021
G1 X202.532 Y36.193 E0.69984
G1 X206.471 Y41.799 E0.69983
G1 X210.115 Y47.602 E0.69983
G1 X213.453 Y53.586 E0.69983
G1 X216.475 Y59.735 E0.69984
G1 X219.174 Y66.033 E0.69983
G1 X219.282 Y66.325 E0.03176
G1 X221.543 Y72.463 E0.66808
G1 X223.575 Y79.007 E0.69984
G1 X225.265 Y85.647 E0.69987
G1 X226.617 Y92.476 E0.71102
G1 X226.417 Y93.156 E0.07236
G1 X225.746 Y93.448 E0.07473
G1 X225.150 Y93.302 E0.06266
G1 X224.801 Y92.901 E0.05429
G1 X222.938 Y88.308 E0.50622
G1 X220.824 Y84.041 E0.48636
G1 X218.298 Y79.773 E0.50652
G1 X215.511 Y75.791 E0.49643
G1 X212.433 Y72.030 E0.49645
G1 X209.081 Y68.510 E0.49645
G1 X205.474 Y65.251 E0.49645
G1 X201.632 Y62.272 E0.49653
G1 X196.734 Y58.998 E0.60169
G1 X191.632 Y56.051 E0.60178
G1 X186.348 Y53.444 E0.60178
G1 X180.905 Y51.189 E0.60178
G1 X175.326 Y49.294 E0.60178
G1 X169.635 Y47.769 E0.60178
G1 X163.856 Y46.619 E0.60178
G1 X158.015 Y45.849 E0.60178
G1 X152.135 Y45.464 E0.60178
G1 X146.243 Y45.464 E0.60178
G1 X140.364 Y45.849 E0.60178
G1 X134.522 Y46.619 E0.60178
G1 X128.744 Y47.769 E0.60178
G1 X123.053 Y49.294 E0.60178
G1 X117.474 Y51.189 E0.60178
G1 X112.030 Y53.444 E0.60178
G1 X106.747 Y56.051 E0.60178
G1 X101.645 Y58.998 E0.60178
G1 X96.747 Y62.272 E0.60169
G1 X92.905 Y65.251 E0.49653
G1 X89.298 Y68.510 E0.49645
G1 X85.946 Y72.030 E0.49645
G1 X82.868 Y75.791 E0.49645
G1 X80.081 Y79.773 E0.49643
G1 X77.555 Y84.041 E0.50652
G1 X75.440 Y88.308 E0.48636
G1 X73.578 Y92.901 E0.50622
G1 X73.228 Y93.302 E0.05428
G1 X72.632 Y93.449 E0.06277
G1 X72.044 Y93.193 E0.06543
G1 X71.369 Y93.248 F10800.000
G1 F8640.000
G1 X71.762 Y92.476 E-0.17785
G1 X72.731 Y87.582 E-1.15215
G1 E-0.07000 F2100.00000
G1 Z0.600 F10800.000
G1 X116.454 Y13.505
G1 Z0.400
G1 E1.40000 F2100.00000
G1 F2686.600
G1 X116.322 Y13.006 E0.05271
G1 X116.242 Y12.928 E0.01146
G1 X119.920 Y11.509 E0.40266
G1 X118.569 Y12.201 E0.15504
G1 X116.531 Y13.458 E0.24460
G1 F8640.000
G1 X116.322 Y13.006 E-0.11486
G1 X116.242 Y12.928 E-0.02591
G1 X119.920 Y11.509 E-0.91031
G1 X118.845 Y12.060 E-0.27891
G1 E-0.07000 F2100.00000
G1 Z0.600 F10800.000
G1 X116.071 Y14.462
G1 Z0.400
G1 E1.40000 F2100.00000
G1 F2686.600
G1 X115.772 Y13.327 E0.11992
G1 X115.128 Y12.699 E0.09184
G1 X119.721 Y10.928 E0.50273
G1 X125.163 Y9.219 E0.58259
G1 X128.262 Y8.460 E0.32587
G1 X127.703 Y8.643 E0.06009
G1 X123.203 Y10.517 E0.49781
G1 X118.871 Y12.737 E0.49720
G1 X116.148 Y14.415 E0.32667
G1 F8640.000
G1 X115.772 Y13.327 E-0.26582
G1 X115.128 Y12.699 E-0.20762
G1 X118.589 Y11.364 E-0.85656
G1 E-0.07000 F2100.00000
G1 Z0.600 F10800.000
G1 X178.459 Y11.509
G1 Z0.400
G1 E1.40000 F2100.00000
G1 F2686.600
G1 X182.141 Y12.924 E0.40290
G1 X182.021 Y13.041 E0.01716
G1 X181.920 Y13.502 E0.04817
G1 X179.810 Y12.202 E0.25312
G1 X178.539 Y11.550 E0.14590
G1 F8640.000
G1 X182.141 Y12.924 E-0.89021
G1 X182.021 Y13.041 E-0.03879
G1 X181.920 Y13.502 E-0.10891
G1 X180.843 Y12.838 E-0.29209
G1 E-0.07000 F2100.00000
G1 Z0.600 F10800.000
G1 X182.581 Y13.352
G1 Z0.400
G1 E1.40000 F2100.00000
G1 F2686.600
G1 X182.334 Y14.479 E0.11779
G1 X179.508 Y12.737 E0.33904
G1 X175.176 Y10.517 E0.49723
G1 X170.676 Y8.643 E0.49781
G1 X170.117 Y8.460 E0.06016
G1 X173.215 Y9.219 E0.32579
G1 X178.662 Y10.929 E0.58316
G1 X183.253 Y12.697 E0.50242
G1 X182.646 Y13.290 E0.08663
G1 F8640.000
G1 X182.334 Y14.479 E-0.28389
G1 X179.508 Y12.737 E-0.76648
G1 X178.431 Y12.185 E-0.27963
G1 E-0.07000 F2100.00000
G1 Z0.600 F10800.000
G1 X226.557 Y94.435
G1 Z0.400
G1 E1.40000 F2100.00000
G1 F2686.600
G1 X227.000 Y94.242 E0.04935
G1 X227.384 Y97.124 E0.29693
G1 X227.061 Y95.887 E0.13054
G1 X226.586 Y94.520 E0.14784
G1 F8640.000
G1 X227.000 Y94.242 E-0.11503
G1 X227.384 Y97.124 E-0.67130
G1 X227.061 Y95.887 E-0.29511
G1 X226.708 Y94.870 E-0.24856
G1 E-0.07000 F2100.00000
G1 Z0.600 F10800.000
G1 X71.822 Y94.436
G1 Z0.400
G1 E1.40000 F2100.00000
G1 F2686.600
G1 X71.318 Y95.887 E0.15695
G1 X70.995 Y97.124 E0.13053
G1 X71.379 Y94.243 E0.29685
G1 X71.739 Y94.400 E0.04014
G1 F8640.000
G1 X71.318 Y95.887 E-0.35700
G1 X70.995 Y97.124 E-0.29510
G1 X71.379 Y94.243 E-0.67110
G1 X71.406 Y94.255 E-0.00680
G1 E-0.07000 F2100.00000
G1 Z0.600 F10800.000
G1 X64.139 Y133.341
G1 Z0.400
G1 E1.40000 F2100.00000
G1 F2686.600
G1 X64.880 Y133.836 E0.09095
G1 X66.606 Y134.220 E0.18068
G1 X67.300 Y134.082 E0.07222
G1 X67.300 Y136.050 E0.20100
G1 X66.639 Y135.903 E0.06912
G1 X64.880 Y136.295 E0.18413
G1 X64.139 Y136.790 E0.09095
G1 X63.399 Y136.295 E0.09095
G1 X61.639 Y135.903 E0.18413
G1 X60.979 Y136.050 E0.06912
G1 X60.979 Y134.080 E0.20120
G1 X61.639 Y134.228 E0.06912
G1 X63.399 Y133.836 E0.18412
G1 X64.065 Y133.391 E0.08176
G1 X64.139 Y132.566 F10800.000
G1 F2686.600
G1 X64.248 Y132.674 E0.01564
G1 X65.126 Y133.261 E0.10784
G1 X66.614 Y133.593 E0.15572
G1 X67.553 Y133.406 E0.09781
G1 X67.914 Y133.309 E0.03819
G1 X67.914 Y136.817 E0.35823
G1 X66.639 Y136.532 E0.13339
G1 X65.126 Y136.870 E0.15841
G1 X64.248 Y137.456 E0.10783
G1 X64.139 Y137.565 E0.01564
G1 X64.031 Y137.456 E0.01564
G1 X63.153 Y136.870 E0.10783
G1 X61.639 Y136.532 E0.15841
G1 X60.365 Y136.817 E0.13339
G1 X60.365 Y133.314 E0.35770
G1 X61.639 Y133.599 E0.13338
G1 X63.153 Y133.261 E0.15841
G1 X64.076 Y132.630 E0.11417
G1 X64.139 Y131.639 F10800.000
G1 F2686.600
G1 X64.257 Y131.816 E0.02170
G1 X64.639 Y132.197 E0.05513
G1 X65.371 Y132.687 E0.08993
G1 X66.621 Y132.965 E0.13076
G1 X67.413 Y132.807 E0.08253
G1 X67.936 Y132.667 E0.05529
G1 X68.528 Y132.272 E0.07272
G1 X68.528 Y137.859 E0.57065
G1 X67.908 Y137.444 E0.07624
G1 X66.639 Y137.162 E0.13270
G1 X65.371 Y137.444 E0.13270
G1 X64.639 Y137.933 E0.08993
G1 X64.257 Y138.315 E0.05513
G1 X64.139 Y138.492 E0.02170
G1 X64.021 Y138.315 E0.02170
G1 X63.640 Y137.933 E0.05514
G1 X62.908 Y137.444 E0.08993
G1 X61.639 Y137.162 E0.13270
G1 X60.371 Y137.444 E0.13270
G1 X59.751 Y137.859 E0.07624
G1 X59.751 Y132.272 E0.57065
G1 X60.371 Y132.687 E0.07625
G1 X61.639 Y132.969 E0.13270
G1 X62.908 Y132.687 E0.13270
G1 X63.640 Y132.197 E0.08993
G1 X64.021 Y131.816 E0.05513
G1 X64.089 Y131.714 E0.01251
G1 F8640.000
G1 X64.257 Y131.816 E-0.04538
G1 X64.639 Y132.197 E-0.12464
G1 X65.371 Y132.687 E-0.20331
G1 X66.621 Y132.965 E-0.29562
G1 X67.413 Y132.807 E-0.18658
G1 X67.936 Y132.667 E-0.12500
G1 X68.528 Y132.272 E-0.16439
G1 X68.528 Y133.073 E-0.18509
G1 E-0.07000 F2100.00000
G1 Z0.600 F10800.000
G1 X71.453 Y93.606
G1 Z0.400
G1 E1.40000 F2100.00000
G1 F2686.600
G1 X72.577 Y94.095 E0.12516
G1 X72.665 Y94.073 E0.00928
G1 X72.395 Y94.658 E0.06585
G1 X71.906 Y96.066 E0.15221
G1 X70.701 Y100.680 E0.48702
G1 X69.836 Y105.366 E0.48673
G1 X69.315 Y110.103 E0.48673
G1 X69.142 Y114.844 E0.48456
G1 X69.142 Y144.662 E3.04546
G1 X69.136 Y140.201 E0.45567
G1 X69.033 Y139.681 E0.05413
G1 X68.924 Y139.275 E0.04288
G1 X68.544 Y138.707 E0.06987
G1 X68.248 Y138.411 E0.04278
G1 X67.662 Y138.019 E0.07202
G1 X66.639 Y137.791 E0.10699
G1 X65.617 Y138.019 E0.10699
G1 X65.031 Y138.411 E0.07202
G1 X64.735 Y138.707 E0.04278
G1 X64.354 Y139.275 E0.06987
G1 X64.236 Y139.718 E0.04677
G1 X64.164 Y140.225 E0.05236
G1 X64.139 Y144.673 E0.45431
G1 X64.136 Y140.189 E0.45799
G1 X63.936 Y139.293 E0.09383
G1 X63.544 Y138.707 E0.07199
G1 X63.248 Y138.411 E0.04278
G1 X62.662 Y138.019 E0.07202
G1 X61.639 Y137.791 E0.10699
G1 X60.617 Y138.019 E0.10699
G1 X60.031 Y138.411 E0.07202
G1 X59.735 Y138.707 E0.04278
G1 X59.354 Y139.275 E0.06987
G1 X59.246 Y139.681 E0.04288
G1 X59.142 Y140.201 E0.05413
G1 X59.139 Y144.673 E0.45681
G1 X59.139 Y125.458 E1.96261
G1 X59.142 Y129.942 E0.45799
G1 X59.343 Y130.838 E0.09383
G1 X59.734 Y131.424 E0.07199
G1 X60.031 Y131.720 E0.04278
G1 X60.617 Y132.112 E0.07202
G1 X61.639 Y132.340 E0.10699
G1 X62.662 Y132.112 E0.10699
G1 X63.248 Y131.720 E0.07202
G1 X63.544 Y131.424 E0.04278
G1 X63.936 Y130.838 E0.07199
G1 X64.136 Y129.942 E0.09383
G1 X64.139 Y125.458 E0.45799
G1 X64.142 Y129.942 E0.45799
G1 X64.343 Y130.838 E0.09383
G1 X64.734 Y131.424 E0.07199
G1 X65.031 Y131.720 E0.04278
G1 X65.617 Y132.112 E0.07202
G1 X66.628 Y132.338 E0.10580
G1 X67.274 Y132.209 E0.06725
G1 X67.679 Y132.100 E0.04288
G1 X68.248 Y131.720 E0.06987
G1 X68.544 Y131.424 E0.04278
G1 X68.924 Y130.855 E0.06987
G1 X69.033 Y130.450 E0.04288
G1 X69.136 Y129.930 E0.05413
G1 X69.136 Y114.881 E1.53706
G1 X69.323 Y107.832 E0.72018
G1 X69.882 Y100.819 E0.71860
G1 X70.812 Y93.845 E0.71860
G1 X72.111 Y86.930 E0.71860
G1 X73.774 Y80.093 E0.71860
G1 X75.797 Y73.355 E0.71860
G1 X78.174 Y66.733 E0.71860
G1 X80.899 Y60.246 E0.71860
G1 X83.964 Y53.913 E0.71860
G1 X87.360 Y47.751 E0.71860
G1 X91.078 Y41.778 E0.71860
G1 X95.108 Y36.011 E0.71860
G1 X99.437 Y30.465 E0.71860
G1 X104.050 Y25.161 E0.71790
G1 X107.350 Y21.830 E0.47892
G1 X110.889 Y18.764 E0.47822
G1 X114.786 Y15.880 E0.49511
G1 X115.247 Y15.360 E0.07102
G1 X115.450 Y14.516 E0.08871
G1 X115.221 Y13.648 E0.09163
G1 X114.565 Y13.008 E0.09363
G1 X113.877 Y12.776 E0.07418
G1 X113.194 Y12.859 E0.07030
G1 X114.152 Y12.417 E0.10780
G1 X119.517 Y10.348 E0.58727
G1 X124.998 Y8.627 E0.58678
G1 X130.584 Y7.259 E0.58738
G1 X135.057 Y6.440 E0.46446
G1 X136.649 Y6.085 E0.16659
G1 X138.398 Y5.969 E0.17897
G1 X139.838 Y5.811 E0.14799
G1 X142.296 Y5.580 E0.25218
G1 X145.775 Y5.390 E0.35584
G1 X147.448 Y5.337 E0.17097
G1 X150.931 Y5.337 E0.35573
G1 X152.604 Y5.390 E0.17097
G1 X156.083 Y5.580 E0.35586
G1 X158.605 Y5.817 E0.25874
G1 X160.007 Y5.971 E0.14404
G1 X161.703 Y6.081 E0.17358
G1 X163.350 Y6.446 E0.17229
G1 X165.241 Y6.779 E0.19613
G1 X167.793 Y7.258 E0.26518
G1 X173.380 Y8.627 E0.58752
G1 X178.865 Y10.349 E0.58713
G1 X184.225 Y12.417 E0.58685
G1 X185.185 Y12.859 E0.10796
G1 X184.502 Y12.776 E0.07030
G1 X183.814 Y13.008 E0.07418
G1 X183.142 Y13.664 E0.09588
G1 X182.941 Y14.580 E0.09588
G1 X183.108 Y15.287 E0.07413
G1 X183.574 Y15.866 E0.07591
G1 X187.489 Y18.764 E0.49757
G1 X191.029 Y21.830 E0.47822
G1 X194.329 Y25.161 E0.47892
G1 X198.941 Y30.465 E0.71790
G1 X203.271 Y36.011 E0.71860
G1 X207.300 Y41.778 E0.71860
G1 X211.019 Y47.751 E0.71860
G1 X214.415 Y53.913 E0.71860
G1 X217.480 Y60.246 E0.71860
G1 X220.205 Y66.733 E0.71860
G1 X222.582 Y73.355 E0.71860
G1 X224.605 Y80.093 E0.71860
G1 X226.268 Y86.930 E0.71860
G1 X227.566 Y93.845 E0.71860
G1 X228.496 Y100.819 E0.71860
G1 X229.055 Y107.832 E0.71860
G1 X229.242 Y114.882 E0.72026
G1 X229.262 Y126.492 E1.18581
G1 X229.325 Y126.492 E0.00648
G1 X229.325 Y129.278 E0.28453
G1 X229.236 Y129.738 E0.04793
G1 X229.236 Y114.844 E1.52121
G1 X229.063 Y110.103 E0.48456
G1 X228.543 Y105.366 E0.48673
G1 X227.678 Y100.680 E0.48673
G1 X226.473 Y96.066 E0.48702
G1 X225.984 Y94.658 E0.15221
G1 X225.713 Y94.072 E0.06592
G1 X225.801 Y94.094 E0.00923
G1 X226.926 Y93.605 E0.12524
G1 X227.248 Y92.505 E0.11708
G1 X225.864 Y85.512 E0.72809
G1 X224.167 Y78.840 E0.70318
G1 X222.125 Y72.265 E0.70309
G1 X219.745 Y65.806 E0.70309
G1 X217.033 Y59.479 E0.70309
G1 X213.997 Y53.301 E0.70309
G1 X210.644 Y47.289 E0.70309
G1 X206.983 Y41.459 E0.70309
G1 X203.025 Y35.826 E0.70309
G1 X198.780 Y30.407 E0.70309
G1 X194.254 Y25.210 E0.70389
G1 X190.862 Y21.793 E0.49175
G1 X187.205 Y18.649 E0.49255
G1 X183.312 Y15.803 E0.49255
G1 X179.207 Y13.273 E0.49252
G1 X174.916 Y11.074 E0.49239
G1 X170.463 Y9.219 E0.49274
G1 X165.879 Y7.721 E0.49254
G1 X161.192 Y6.590 E0.49244
G1 X156.365 Y5.823 E0.49916
G1 X151.632 Y5.449 E0.48496
G1 X146.878 Y5.446 E0.48556
G1 X141.867 Y5.842 E0.51333
G1 X137.186 Y6.590 E0.48416
G1 X132.500 Y7.721 E0.49238
G1 X127.916 Y9.219 E0.49254
G1 X123.693 Y10.977 E0.46721
G1 X123.463 Y11.074 E0.02553
G1 X119.172 Y13.272 E0.49236
G1 X115.067 Y15.803 E0.49255
G1 X111.375 Y18.502 E0.46711
G1 X111.173 Y18.649 E0.02552
G1 X107.517 Y21.793 E0.49247
G1 X104.125 Y25.209 E0.49174
G1 X99.599 Y30.407 E0.70390
G1 X95.354 Y35.826 E0.70310
G1 X91.396 Y41.458 E0.70309
G1 X87.735 Y47.288 E0.70309
G1 X84.382 Y53.300 E0.70309
G1 X81.345 Y59.479 E0.70309
G1 X78.634 Y65.806 E0.70309
G1 X76.254 Y72.265 E0.70309
G1 X74.212 Y78.840 E0.70309
G1 X72.514 Y85.512 E0.70318
G1 X71.130 Y92.505 E0.72809
G1 X71.428 Y93.519 E0.10797
G1 F8640.000
G1 X72.577 Y94.095 E-0.29670
G1 X72.665 Y94.073 E-0.02098
G1 X72.395 Y94.658 E-0.14888
G1 X71.906 Y96.066 E-0.34410
G1 X71.337 Y98.242 E-0.51934
G1 E-0.07000 F2100.00000
G1 Z0.600 F10800.000
G1 X187.012 Y13.702
G1 Z0.400
G1 E1.40000 F2100.00000
G1 F2686.600
G1 X189.446 Y14.824 E0.27374
G1 X190.201 Y15.232 E0.08759
G1 X187.094 Y13.741 E0.35200
G1 F8640.000
G1 X189.446 Y14.824 E-0.59809
G1 X190.201 Y15.232 E-0.19802
G1 X188.116 Y14.232 E-0.53390
G1 E-0.07000 F2100.00000
G1 Z0.600 F10800.000
G1 X192.279 Y16.357
G1 Z0.400
G1 E1.40000 F2100.00000
G1 F2686.600
G1 X194.502 Y17.560 E0.25811
G1 X195.317 Y18.070 E0.09821
G1 X192.358 Y16.401 E0.34698
G1 F8640.000
G1 X194.502 Y17.560 E-0.56275
G1 X195.317 Y18.070 E-0.22202
G1 X193.260 Y16.910 E-0.54523
G1 E-0.07000 F2100.00000
G1 Z0.600 F10800.000
G1 X197.351 Y19.345
G1 Z0.400
G1 E1.40000 F2100.00000
G1 F2686.600
G1 X199.372 Y20.612 E0.24367
G1 X200.237 Y21.235 E0.10883
G1 X197.426 Y19.394 E0.34316
G1 F8640.000
G1 X199.372 Y20.612 E-0.53011
G1 X200.237 Y21.235 E-0.24604
G1 X198.230 Y19.921 E-0.55385
G1 E-0.07000 F2100.00000
G1 Z0.600 F10800.000
G1 X202.210 Y22.654
G1 Z0.400
G1 E1.40000 F2100.00000
G1 F2686.600
G1 X204.038 Y23.970 E0.22996
G1 X204.942 Y24.712 E0.11947
G1 X202.282 Y22.709 E0.34008
G1 F8640.000
G1 X204.038 Y23.970 E-0.49912
G1 X204.942 Y24.712 E-0.27008
G1 X203.002 Y23.251 E-0.56080
G1 E-0.07000 F2100.00000
G1 Z0.600 F10800.000
G1 X206.839 Y26.271
G1 Z0.400
G1 E1.40000 F2100.00000
