; generated by PrusaSlicer 2.2.0+win64 on 2020-04-07 at 06:10:18 UTC

; 

; external perimeters extrusion width = 0.70mm
; perimeters extrusion width = 0.70mm
; infill extrusion width = 0.70mm
; solid infill extrusion width = 0.70mm
; top infill extrusion width = 0.70mm
; first layer extrusion width = 0.70mm

M73 P0 R52
M73 Q0 S54
M201 X1000 Y1000 Z1000 E5000 ; sets maximum accelerations, mm/sec^2
M203 X200 Y200 Z12 E120 ; sets maximum feedrates, mm/sec
M204 P1250 R1250 T1250 ; sets acceleration (P, T) and retract acceleration (R), mm/sec^2
M205 X8.00 Y8.00 Z0.40 E4.50 ; sets the jerk limits, mm/sec
M205 S0 T0 ; sets the minimum extruding and travel feed rate, mm/sec
M107
M862.3 P "MK3S" ; printer model check
M862.1 P0.6 ; nozzle diameter check
M115 U3.8.1 ; tell printer latest fw version
G90 ; use absolute coordinates
M83 ; extruder relative mode
M104 S250 ; set extruder temp
M140 S90 ; set bed temp
M190 S90 ; wait for bed temp
M109 S250 ; wait for extruder temp
G28 W ; home all without mesh bed level
G80 ; mesh bed leveling
G1 Y-3.0 F1000.0 ; go outside print area
G92 E0.0
G1 X60.0 E9.0 F1000.0 ; intro line
M73 Q0 S54
M73 P0 R52
G1 X100.0 E12.5 F1000.0 ; intro line
G92 E0.0
M221 S95
G21 ; set units to millimeters
G90 ; use absolute coordinates
M83 ; use relative distances for extrusion
M900 K24 ; Filament gcode
;BEFORE_LAYER_CHANGE
G92 E0.0
;0.4


G1 E-1.40000 F2100.00000
G1 Z0.200 F10800.000
G1 Z0.400
;AFTER_LAYER_CHANGE
;0.4
G1 Z0.600
G1 X199.033 Y37.294
G1 Z0.400
G1 E1.40000 F2100.00000
M204 S1000
G1 F2686.600
G1 X199.187 Y37.491 E0.02552
G1 X201.777 Y41.199 E0.46195
G1 X199.085 Y37.368 E0.47825
G1 F8640.000
G1 X199.187 Y37.491 E-0.03696
G1 X201.777 Y41.199 E-1.04436
G1 X201.158 Y40.318 E-0.24868
G1 E-0.07000 F2100.00000
G1 Z0.600 F10800.000
G1 X203.030 Y42.992
G1 Z0.400
G1 E1.40000 F2100.00000
G1 F2686.600
G1 X203.216 Y43.259 E0.03319
G1 X205.388 Y46.748 E0.41977
G1 X203.078 Y43.068 E0.44373
G1 F8640.000
G1 X203.216 Y43.259 E-0.05430
G1 X205.388 Y46.748 E-0.94900
G1 X204.636 Y45.550 E-0.32670
G1 E-0.07000 F2100.00000
G1 Z0.600 F10800.000
G1 X206.723 Y48.892
G1 Z0.400
G1 E1.40000 F2100.00000
G1 F2686.600
G1 X206.934 Y49.232 E0.04088
G1 X208.792 Y52.602 E0.39306
G1 X206.767 Y48.970 E0.42470
G1 F8640.000
G1 X206.934 Y49.232 E-0.07168
G1 X208.792 Y52.602 E-0.88862
G1 X208.012 Y51.204 E-0.36970
G1 E-0.07000 F2100.00000
G1 Z0.600 F10800.000
G1 X210.101 Y54.977
G1 Z0.400
G1 E1.40000 F2100.00000
G1 F2686.600
G1 X210.331 Y55.393 E0.04859
G1 X211.923 Y58.683 E0.37325
G1 X210.141 Y55.058 E0.41259
G1 F8640.000
G1 X210.331 Y55.393 E-0.08909
G1 X211.923 Y58.683 E-0.84383
G1 X211.164 Y57.140 E-0.39708
G1 E-0.07000 F2100.00000
G1 Z0.600 F10800.000
G1 X213.156 Y61.231
G1 Z0.400
G1 E1.40000 F2100.00000
G1 F2686.600
G1 X213.396 Y61.727 E0.05627
G1 X214.750 Y64.951 E0.35718
G1 X213.191 Y61.313 E0.40420
G1 F8640.000
G1 X213.396 Y61.727 E-0.10647
G1 X214.750 Y64.951 E-0.80750
G1 X214.040 Y63.295 E-0.41603
G1 E-0.07000 F2100.00000
G1 Z0.600 F10800.000
G1 X215.878 Y67.636
G1 Z0.400
G1 E1.40000 F2100.00000
G1 F2686.600
G1 X216.120 Y68.213 E0.06398
G1 X217.257 Y71.378 E0.34341
G1 X215.909 Y67.720 E0.39811
G1 F8640.000
G1 X216.120 Y68.213 E-0.12388
G1 X217.257 Y71.378 E-0.77636
G1 X216.613 Y69.631 E-0.42977
G1 E-0.07000 F2100.00000
G1 Z0.600 F10800.000
G1 X218.261 Y74.174
G1 Z0.400
G1 E1.40000 F2100.00000
G1 F2686.600
G1 X218.498 Y74.835 E0.07169
G1 X219.430 Y77.940 E0.33113
G1 X218.287 Y74.260 E0.39355
G1 F8640.000
G1 X218.498 Y74.835 E-0.14132
G1 X219.430 Y77.940 E-0.74861
G1 X218.865 Y76.120 E-0.44007
G1 E-0.07000 F2100.00000
G1 Z0.600 F10800.000
G1 X220.297 Y80.829
G1 Z0.400
G1 E1.40000 F2100.00000
G1 F2686.600
G1 X220.521 Y81.574 E0.07942
G1 X221.261 Y84.617 E0.31987
G1 X220.319 Y80.916 E0.39000
G1 F8640.000
G1 X220.521 Y81.574 E-0.15878
G1 X221.261 Y84.617 E-0.72315
G1 X220.783 Y82.736 E-0.44807
G1 E-0.07000 F2100.00000
G1 Z0.600 F10800.000
G1 X221.982 Y87.580
G1 Z0.400
G1 E1.40000 F2100.00000
G1 F2686.600
G1 X222.184 Y88.410 E0.08724
G1 X222.747 Y91.407 E0.31145
G1 X222.000 Y87.668 E0.38940
G1 F8640.000
G1 X222.184 Y88.410 E-0.17647
G1 X222.747 Y91.407 E-0.70411
G1 X222.365 Y89.498 E-0.44943
G1 E-0.07000 F2100.00000
G1 Z0.600 F10800.000
G1 X222.929 Y95.824
G1 Z0.400
G1 E1.40000 F2100.00000
G1 F2686.600
G1 X223.300 Y98.605 E0.28654
G1 X222.976 Y97.364 E0.13101
G1 X222.518 Y96.067 E0.14048
G1 X222.852 Y95.870 E0.03962
G1 F8640.000
G1 X223.300 Y98.605 E-0.63998
G1 X222.976 Y97.364 E-0.29618
G1 X222.518 Y96.067 E-0.31759
G1 X222.802 Y95.899 E-0.07625
G1 E-0.07000 F2100.00000
G1 Z0.600 F10800.000
G1 X230.155 Y134.821
G1 Z0.400
G1 E1.40000 F2100.00000
G1 F2686.600
G1 X230.896 Y135.316 E0.09095
G1 X232.655 Y135.708 E0.18412
G1 X233.316 Y135.561 E0.06912
G1 X233.316 Y137.531 E0.20120
G1 X232.655 Y137.384 E0.06912
G1 X230.896 Y137.776 E0.18413
G1 X230.155 Y138.271 E0.09095
G1 X229.415 Y137.776 E0.09095
G1 X227.655 Y137.384 E0.18412
G1 X226.995 Y137.531 E0.06913
G1 X226.995 Y135.563 E0.20101
G1 X227.688 Y135.701 E0.07223
G1 X229.415 Y135.316 E0.18068
G1 X230.080 Y134.871 E0.08176
G1 X230.155 Y134.047 F10800.000
G1 F2686.600
G1 X230.263 Y134.155 E0.01564
G1 X231.141 Y134.741 E0.10784
G1 X232.655 Y135.079 E0.15841
G1 X233.930 Y134.795 E0.13339
G1 X233.930 Y138.297 E0.35770
G1 X232.655 Y138.013 E0.13339
G1 X231.141 Y138.350 E0.15841
G1 X230.263 Y138.937 E0.10783
G1 X230.155 Y139.045 E0.01564
G1 X230.047 Y138.937 E0.01564
G1 X229.169 Y138.350 E0.10783
G1 X227.655 Y138.013 E0.15841
G1 X226.380 Y138.297 E0.13340
G1 X226.380 Y134.790 E0.35824
G1 X226.742 Y134.886 E0.03820
G1 X227.681 Y135.073 E0.09781
G1 X229.169 Y134.741 E0.15572
G1 X230.092 Y134.110 E0.11417
G1 X230.155 Y133.119 F10800.000
G1 F2686.600
G1 X230.273 Y133.296 E0.02170
G1 X230.655 Y133.678 E0.05513
G1 X231.387 Y134.167 E0.08993
G1 X232.655 Y134.450 E0.13270
G1 X233.923 Y134.167 E0.13270
G1 X234.544 Y133.752 E0.07625
G1 X234.544 Y139.340 E0.57066
G1 X233.923 Y138.925 E0.07625
G1 X232.655 Y138.642 E0.13270
G1 X231.387 Y138.925 E0.13270
G1 X230.655 Y139.414 E0.08993
G1 X230.273 Y139.796 E0.05513
G1 X230.155 Y139.972 E0.02171
G1 X230.037 Y139.796 E0.02171
G1 X229.655 Y139.414 E0.05513
G1 X228.923 Y138.925 E0.08993
G1 X227.655 Y138.642 E0.13270
G1 X226.387 Y138.925 E0.13270
G1 X225.766 Y139.340 E0.07626
G1 X225.766 Y133.752 E0.57067
G1 X226.358 Y134.148 E0.07273
G1 X226.881 Y134.288 E0.05529
G1 X227.674 Y134.446 E0.08253
G1 X228.923 Y134.167 E0.13076
G1 X229.655 Y133.678 E0.08993
G1 X230.037 Y133.296 E0.05513
G1 X230.105 Y133.194 E0.01251
G1 F8640.000
G1 X230.273 Y133.296 E-0.04538
G1 X230.655 Y133.678 E-0.12464
G1 X231.387 Y134.167 E-0.20331
G1 X232.655 Y134.450 E-0.30000
G1 X233.923 Y134.167 E-0.30000
G1 X234.544 Y133.752 E-0.17238
G1 X234.544 Y134.550 E-0.18429
G1 E-0.07000 F2100.00000
G1 Z0.600 F10800.000
G1 X230.152 Y126.949
G1 Z0.400
G1 E1.40000 F2100.00000
G1 F2686.600
G1 X230.158 Y131.422 E0.45685
G1 X230.359 Y132.319 E0.09383
G1 X230.750 Y132.905 E0.07199
G1 X231.046 Y133.201 E0.04278
G1 X231.633 Y133.593 E0.07202
G1 X232.655 Y133.820 E0.10699
G1 X233.678 Y133.593 E0.10699
G1 X234.264 Y133.201 E0.07202
G1 X234.560 Y132.905 E0.04278
G1 X234.952 Y132.319 E0.07199
G1 X235.152 Y131.422 E0.09383
G1 X235.158 Y126.949 E0.45685
G1 X235.155 Y146.154 E1.96146
G1 X235.152 Y141.681 E0.45680
G1 X235.049 Y141.161 E0.05413
G1 X234.940 Y140.756 E0.04288
G1 X234.560 Y140.187 E0.06987
G1 X234.264 Y139.891 E0.04278
G1 X233.678 Y139.499 E0.07202
G1 X232.655 Y139.271 E0.10699
G1 X231.633 Y139.499 E0.10699
G1 X231.046 Y139.891 E0.07202
G1 X230.750 Y140.187 E0.04278
G1 X230.359 Y140.773 E0.07199
G1 X230.158 Y141.670 E0.09383
G1 X230.155 Y146.154 E0.45800
G1 X230.152 Y141.681 E0.45682
G1 X230.049 Y141.161 E0.05413
G1 X229.940 Y140.756 E0.04288
G1 X229.560 Y140.187 E0.06987
G1 X229.264 Y139.891 E0.04278
G1 X228.678 Y139.499 E0.07202
G1 X227.655 Y139.271 E0.10699
G1 X226.633 Y139.499 E0.10699
G1 X226.046 Y139.891 E0.07202
G1 X225.750 Y140.187 E0.04278
G1 X225.370 Y140.756 E0.06987
G1 X225.262 Y141.161 E0.04288
G1 X225.158 Y141.681 E0.05413
G1 X225.152 Y146.143 E0.45567
G1 X225.152 Y116.325 E3.04546
G1 X224.979 Y111.584 E0.48456
G1 X224.458 Y106.847 E0.48673
G1 X223.594 Y102.160 E0.48673
G1 X222.388 Y97.544 E0.48728
G1 X221.887 Y96.125 E0.15369
G1 X221.639 Y95.611 E0.05828
G1 X222.220 Y95.529 E0.05991
G1 X222.647 Y95.277 E0.05062
G1 X222.998 Y94.845 E0.05687
G1 X223.191 Y94.432 E0.04654
G1 X223.223 Y93.945 E0.04985
G1 X223.482 Y95.325 E0.14340
G1 X224.412 Y102.299 E0.71860
G1 X224.971 Y109.313 E0.71860
G1 X225.158 Y116.361 E0.72018
G1 X225.158 Y131.411 E1.53705
G1 X225.262 Y131.930 E0.05413
G1 X225.370 Y132.336 E0.04288
G1 X225.750 Y132.905 E0.06987
G1 X226.046 Y133.201 E0.04278
G1 X226.615 Y133.581 E0.06987
G1 X227.021 Y133.689 E0.04288
G1 X227.666 Y133.818 E0.06725
G1 X228.678 Y133.593 E0.10580
G1 X229.264 Y133.201 E0.07202
G1 X229.560 Y132.905 E0.04278
G1 X229.952 Y132.319 E0.07199
G1 X230.152 Y131.422 E0.09383
G1 X230.152 Y127.039 E0.44765
G1 F8640.000
G1 X230.158 Y131.422 E-1.01204
G1 X230.359 Y132.319 E-0.21212
G1 X230.613 Y132.700 E-0.10584
G1 E-0.07000 F2100.00000
G1 Z0.600 F10800.000
G1 X235.054 Y95.566
G1 Z0.400
G1 E1.40000 F2100.00000
G1 F2686.600
G1 X235.038 Y95.564 E0.00169
G1 X234.839 Y90.655 E0.50177
G1 X234.881 Y91.117 E0.04738
G1 X235.051 Y95.476 E0.44558
G1 F8640.000
G1 X235.038 Y95.564 E-0.02039
G1 X234.839 Y90.655 E-1.13438
G1 X234.881 Y91.117 E-0.10712
G1 X234.893 Y91.412 E-0.06811
G1 E-0.07000 F2100.00000
G1 Z0.600 F10800.000
G1 X234.733 Y89.483
G1 Z0.400
G1 E1.40000 F2100.00000
G1 F2686.600
G1 X234.295 Y85.216 E0.43809
G1 X234.422 Y86.072 E0.08829
G1 X234.724 Y89.394 E0.34071
G1 F8640.000
G1 X234.295 Y85.216 E-0.96964
G1 X234.422 Y86.072 E-0.19961
G1 X234.485 Y86.765 E-0.16075
G1 E-0.07000 F2100.00000
G1 Z0.600 F10800.000
G1 X234.024 Y83.382
G1 Z0.400
G1 E1.40000 F2100.00000
G1 F2686.600
G1 X233.398 Y79.648 E0.38678
G1 X233.679 Y81.058 E0.14690
G1 X234.010 Y83.293 E0.23079
G1 F8640.000
G1 X233.398 Y79.648 E-0.85363
G1 X233.679 Y81.058 E-0.33212
G1 X233.771 Y81.676 E-0.14425
G1 E-0.07000 F2100.00000
G1 Z0.600 F10800.000
G1 X233.193 Y78.619
G1 Z0.400
G1 E1.40000 F2100.00000
G1 F2686.600
G1 X231.986 Y73.462 E0.54091
G1 X230.451 Y68.388 E0.54143
G1 X230.756 Y69.270 E0.09526
G1 X231.488 Y71.694 E0.25864
G1 X232.429 Y75.014 E0.35245
G1 X235.359 Y74.277 E0.30861
G1 X235.426 Y74.540 E0.02775
G1 X232.539 Y75.338 E0.30586
G1 X233.176 Y78.531 E0.33254
G1 F8640.000
G1 X231.986 Y73.462 E-1.20210
G1 X231.826 Y72.932 E-0.12790
G1 E-0.07000 F2100.00000
G1 Z0.600 F10800.000
G1 X230.084 Y67.323
G1 Z0.400
G1 E1.40000 F2100.00000
G1 F2686.600
G1 X228.524 Y63.150 E0.45507
G1 X229.036 Y64.407 E0.13869
G1 X229.619 Y65.977 E0.17097
G1 X230.054 Y67.238 E0.13633
G1 F8640.000
G1 X228.524 Y63.150 E-1.00803
G1 X229.036 Y64.407 E-0.31354
G1 X229.049 Y64.441 E-0.00843
G1 E-0.07000 F2100.00000
G1 Z0.600 F10800.000
G1 X228.098 Y62.106
G1 Z0.400
G1 E1.40000 F2100.00000
G1 F2686.600
G1 X226.227 Y57.934 E0.46705
G1 X227.040 Y59.653 E0.19424
G1 X227.722 Y61.182 E0.17097
G1 X228.064 Y62.023 E0.09276
G1 F8640.000
G1 X226.227 Y57.934 E-1.03512
G1 X226.773 Y59.088 E-0.29488
G1 E-0.07000 F2100.00000
G1 Z0.600 F10800.000
G1 X225.819 Y57.070
G1 Z0.400
G1 E1.40000 F2100.00000
G1 F2686.600
G1 X223.279 Y52.256 E0.55590
G1 X220.860 Y48.305 E0.47318
G1 X222.022 Y50.125 E0.22048
G1 X222.951 Y51.465 E0.16656
G1 X223.719 Y53.040 E0.17900
G1 X224.409 Y54.314 E0.14799
G1 X225.551 Y56.504 E0.25217
G1 X225.780 Y56.989 E0.05486
G1 F8640.000
G1 X223.279 Y52.256 E-1.23600
G1 X223.067 Y51.909 E-0.09400
G1 E-0.07000 F2100.00000
G1 Z0.600 F10800.000
G1 X220.010 Y46.973
G1 Z0.400
G1 E1.40000 F2100.00000
G1 F2686.600
G1 X218.073 Y44.221 E0.34379
G1 X219.575 Y46.292 E0.26132
G1 X219.962 Y46.898 E0.07339
G1 F8640.000
G1 X218.073 Y44.221 E-0.75647
G1 X219.531 Y46.232 E-0.57353
G1 E-0.07000 F2100.00000
G1 Z0.600 F10800.000
G1 X216.630 Y42.231
G1 Z0.400
G1 E1.40000 F2100.00000
G1 F2686.600
G1 X214.566 Y39.663 E0.33654
G1 X216.199 Y41.637 E0.26167
G1 X216.577 Y42.158 E0.06580
G1 F8640.000
G1 X214.566 Y39.663 E-0.74008
G1 X216.195 Y41.631 E-0.58992
G1 E-0.07000 F2100.00000
G1 Z0.600 F10800.000
G1 X212.997 Y37.768
G1 Z0.400
G1 E1.40000 F2100.00000
G1 F2686.600
G1 X210.811 Y35.373 E0.33122
G1 X212.534 Y37.208 E0.25711
G1 X212.940 Y37.699 E0.06503
G1 F8640.000
G1 X210.811 Y35.373 E-0.72805
G1 X212.534 Y37.208 E-0.58126
G1 X212.591 Y37.277 E-0.02069
G1 E-0.07000 F2100.00000
G1 Z0.600 F10800.000
G1 X209.139 Y33.598
G1 Z0.400
G1 E1.40000 F2100.00000
G1 F2686.600
G1 X206.719 Y31.271 E0.34289
G1 X208.595 Y33.025 E0.26231
G1 X209.077 Y33.533 E0.07151
G1 F8640.000
G1 X206.719 Y31.271 E-0.75444
G1 X208.540 Y32.973 E-0.57556
G1 E-0.07000 F2100.00000
G1 Z0.600 F10800.000
G1 X204.936 Y29.605
G1 Z0.400
G1 E1.40000 F2100.00000
G1 F2686.600
G1 X202.411 Y27.469 E0.33779
G1 X204.395 Y29.099 E0.26223
G1 X204.871 Y29.543 E0.06649
G1 F8640.000
G1 X202.411 Y27.469 E-0.74292
G1 X204.376 Y29.083 E-0.58708
G1 E-0.07000 F2100.00000
G1 Z0.600 F10800.000
G1 X200.527 Y25.922
G1 Z0.400
G1 E1.40000 F2100.00000
G1 F2686.600
G1 X197.870 Y23.951 E0.33787
G1 X199.954 Y25.450 E0.26214
G1 X200.458 Y25.864 E0.06666
G1 F8640.000
G1 X197.870 Y23.951 E-0.74308
G1 X199.933 Y25.436 E-0.58692
G1 E-0.07000 F2100.00000
G1 Z0.600 F10800.000
G1 X195.892 Y22.527
G1 Z0.400
G1 E1.40000 F2100.00000
G1 F2686.600
G1 X193.116 Y20.731 E0.33769
G1 X195.288 Y22.093 E0.26187
G1 X195.819 Y22.474 E0.06675
G1 F8640.000
G1 X193.116 Y20.731 E-0.74268
G1 X195.271 Y22.082 E-0.58732
G1 E-0.07000 F2100.00000
G1 Z0.600 F10800.000
G1 X191.048 Y19.435
G1 Z0.400
G1 E1.40000 F2100.00000
G1 F2686.600
G1 X188.167 Y17.822 E0.33730
G1 X190.418 Y19.040 E0.26142
G1 X190.972 Y19.387 E0.06681
G1 F8640.000
G1 X188.167 Y17.822 E-0.74181
G1 X190.407 Y19.034 E-0.58819
G1 E-0.07000 F2100.00000
G1 Z0.600 F10800.000
G1 X186.978 Y23.344
G1 Z0.400
G1 E1.40000 F2100.00000
G1 F2686.600
G1 X190.244 Y26.642 E0.47410
G1 X194.857 Y31.945 E0.71790
G1 X198.174 Y36.194 E0.55050
G1 X194.759 Y31.835 E0.56553
G1 X190.231 Y26.634 E0.70433
G1 X186.844 Y23.223 E0.49092
G1 X186.912 Y23.282 E0.00918
G1 X186.574 Y22.989 F10800.000
G1 F2686.600
G1 X183.236 Y20.120 E0.44962
G1 X183.405 Y20.245 E0.02151
G1 X186.506 Y22.930 E0.41897
G1 F8640.000
G1 X183.236 Y20.120 E-0.99569
G1 X183.405 Y20.245 E-0.04863
G1 X184.340 Y21.055 E-0.28568
G1 E-0.07000 F2100.00000
G1 Z0.600 F10800.000
G1 X186.017 Y16.659
G1 Z0.400
G1 E1.40000 F2100.00000
G1 F2686.600
G1 X183.043 Y15.235 E0.33674
G1 X185.362 Y16.305 E0.26085
G1 X185.937 Y16.616 E0.06682
G1 F8640.000
G1 X183.043 Y15.235 E-0.74054
G1 X185.361 Y16.304 E-0.58946
G1 E-0.07000 F2100.00000
G1 Z0.600 F10800.000
G1 X115.100 Y13.273
G1 Z0.400
G1 E1.40000 F2100.00000
G1 F2686.600
G1 X114.451 Y13.606 E0.07443
G1 X112.348 Y14.902 E0.25238
G1 X112.238 Y14.487 E0.04388
G1 X112.158 Y14.408 E0.01146
G1 X115.016 Y13.306 E0.31290
G1 F8640.000
G1 X114.451 Y13.606 E-0.14762
G1 X112.348 Y14.902 E-0.57057
G1 X112.238 Y14.487 E-0.09919
G1 X112.158 Y14.408 E-0.02592
G1 X114.124 Y13.650 E-0.48670
G1 E-0.07000 F2100.00000
G1 Z0.600 F10800.000
G1 X111.687 Y14.808
G1 Z0.400
G1 E1.40000 F2100.00000
G1 F2686.600
G1 X111.044 Y14.180 E0.09184
G1 X115.636 Y12.408 E0.50273
G1 X121.079 Y10.700 E0.58259
G1 X123.365 Y10.140 E0.24039
G1 X119.096 Y11.917 E0.47227
G1 X114.753 Y14.141 E0.49836
G1 X111.965 Y15.859 E0.33444
G1 X111.710 Y14.895 E0.10188
G1 F8640.000
G1 X111.044 Y14.180 E-0.22571
G1 X115.506 Y12.459 E-1.10429
G1 E-0.07000 F2100.00000
G1 Z0.600 F10800.000
G1 X175.101 Y13.269
G1 Z0.400
G1 E1.40000 F2100.00000
G1 F2686.600
G1 X178.057 Y14.404 E0.32339
G1 X177.937 Y14.522 E0.01716
G1 X177.854 Y14.897 E0.03922
G1 X175.759 Y13.606 E0.25134
G1 X175.181 Y13.310 E0.06632
G1 F8640.000
G1 X178.057 Y14.404 E-0.71044
G1 X177.937 Y14.522 E-0.03880
G1 X177.854 Y14.897 E-0.08868
G1 X176.040 Y13.779 E-0.49208
G1 E-0.07000 F2100.00000
G1 Z0.600 F10800.000
G1 X178.497 Y14.833
G1 Z0.400
G1 E1.40000 F2100.00000
G1 F2686.600
G1 X178.269 Y15.874 E0.10883
G1 X175.458 Y14.141 E0.33725
G1 X171.115 Y11.917 E0.49837
G1 X166.846 Y10.140 E0.47226
